X: 1197
T: Miss Crawford
M:C|
L:1/8
R:Reel
B:O'Neill's 1197
N:Collected by J. O'Neill
Z:Transcribed by Trish O'Nei
K:Gm
(dc)|BG^FG DG^FG|AF (3FFF AFcF|BG^FG DG^FG|cAfA Gcdc|
BG^FG DG^FG|AF (3FFF AFcF|BG^FG DG^FG|cAfA "end"G2G2||
Ggg^f gag=f|dfcf ec (3cBA|Ggg^f gag=f|cAfAG2G2|
(3gab (3fga gafg|dfcf ec (3cBA|(3BAG (3cBA (3Bcd (3=e^fg|(3=fed (3cBA"DC"G2||


